X: 19
T:Alborada de Rosalía de Castro (3)
M:2/4
L:1/16
Q:100
B:Leccións de Gaita. OTERO COVELO
K:C
c2BA GABG | c3G .G3.G3| AGFE DEFD | E3C .C2.C2| DEDC B,CDB, |
C4 G2A2 | _BcBA GABG | A4 .G2.G2| GAGF EFGE | F4 D2E2 |
(5FGFED CDEC | D4 B,2C2| DEDC B,CDB, | C3G C4- | C3C C2C2| 
.CDEC B,CDB, | C8- | c2 ||

